resources/icons/16px/list-detail-view.svg

<svg xmlns="http://www.w3.org/2000/svg" viewBox="0 0 16 16">
  <path d="M6 9H1c-.55 0-1 .45-1 1s.45 1 1 1h5c.55 0 1-.45 1-1s-.45-1-1-1m0 4H1c-.55 0-1 .45-1 1s.45 1 1 1h5c.55 0 1-.45 1-1s-.45-1-1-1m9-12h-5c-.55 0-1 .45-1 1v12c0 .55.45 1 1 1h5c.55 0 1-.45 1-1V2c0-.55-.45-1-1-1M6 5H1c-.55 0-1 .45-1 1s.45 1 1 1h5c.55 0 1-.45 1-1s-.45-1-1-1m0-4H1c-.55 0-1 .45-1 1s.45 1 1 1h5c.55 0 1-.45 1-1s-.45-1-1-1"/>
</svg>

<?xml version="1.0" encoding="utf-8"?>
<!-- Generator: Adobe Illustrator 18.0.0, SVG Export Plug-In . SVG Version: 6.00 Build 0)  -->
<svg version="1.1" id="Rounded_Rectangle_5_1_" xmlns="http://www.w3.org/2000/svg" xmlns:xlink="http://www.w3.org/1999/xlink"
	 x="0px" y="0px" viewBox="0 0 16 16" enable-background="new 0 0 16 16" xml:space="preserve">
<g id="Rounded_Rectangle_5">
	<g>
		<path fill-rule="evenodd" clip-rule="evenodd" d="M6,9H1c-0.55,0-1,0.45-1,1s0.45,1,1,1h5c0.55,0,1-0.45,1-1S6.55,9,6,9z M6,13H1
			c-0.55,0-1,0.45-1,1s0.45,1,1,1h5c0.55,0,1-0.45,1-1S6.55,13,6,13z M15,1h-5C9.45,1,9,1.45,9,2v12c0,0.55,0.45,1,1,1h5
			c0.55,0,1-0.45,1-1V2C16,1.45,15.55,1,15,1z M6,5H1C0.45,5,0,5.45,0,6s0.45,1,1,1h5c0.55,0,1-0.45,1-1S6.55,5,6,5z M6,1H1
			C0.45,1,0,1.45,0,2s0.45,1,1,1h5c0.55,0,1-0.45,1-1S6.55,1,6,1z"/>
	</g>
</g>
</svg>
